svgs/sharp-regular/butter.svg

<svg xmlns="http://www.w3.org/2000/svg" viewBox="0 0 640 512"><!--! Font Awesome Pro 6.6.0 by @fontawesome - https://fontawesome.com License - https://fontawesome.com/license (Commercial License) Copyright 2024 Fonticons, Inc. --><path d="M464 112l0 176-48 0 0-176-304 0 0 176-48 0 0-176 0-48 48 0 304 0 24 0 24 0 64 0 48 0 0 48 0 176-48 0 0-176-64 0zM0 320l24 0 592 0 24 0 0 48-24 0-8 0 0 80L32 448l0-80-8 0L0 368l0-48z"/></svg>

<svg xmlns="http://www.w3.org/2000/svg" viewBox="0 0 640 512"><!--! Font Awesome Pro 6.4.2 by @fontawesome - https://fontawesome.com License - https://fontawesome.com/license (Commercial License) Copyright 2023 Fonticons, Inc. --><path d="M464 112V288H416V112H112V288H64V112 64h48H416h24 24 64 48v48V288H528V112H464zM0 320H24 616h24v48H616h-8v80H32V368H24 0V320z"/></svg>
